X: 1
T: The Hag With The Money
R: jig
M: 6/8
L: 1/8
K: Dmix
|:Adc A3 | AGE G3 | Adc A3 | GEA GED |
Adc A3 | AGE G3 | AGE cde | dcA GED:||
K:DMaj
|:ABc dcd | fed efe | ABc dcd |eag edc |
ABc dcd | fed efg | age cde | dcA GED :||


Tune 351	Setting 22311

